small/extra/apps/standard/caffeine.svg

<?xml version="1.0" encoding="UTF-8" standalone="no"?>
<!-- Created with Inkscape (http://www.inkscape.org/) -->
<svg id="svg2" xmlns:rdf="http://www.w3.org/1999/02/22-rdf-syntax-ns#" xmlns="http://www.w3.org/2000/svg" height="100%" width="100%" version="1.1" xmlns:cc="http://creativecommons.org/ns#" viewBox="0 0 512 512" xmlns:dc="http://purl.org/dc/elements/1.1/">
 <metadata id="metadata68">
  <rdf:RDF>
   <cc:Work rdf:about="">
    <dc:format>image/svg+xml</dc:format>
    <dc:type rdf:resource="http://purl.org/dc/dcmitype/StillImage"/>
   </cc:Work>
  </rdf:RDF>
 </metadata>
 <rect id="rect4" rx="25.988" height="512" width="512" y="0" x="0" fill="#ef6a47"/>
 <path id="path6" d="m197.22 41c-31.596 3.932-7.803 39.11 6.344 44.13 23.781 9.957-4.639 39.669-6.05 44.976 6.573 6.573 10.711 11.351 17.465 18.1 8.646 12.775-23.16 0.642-37.795 3.826-52.617 8.234-116.88 35.868-125.28 95.19-2.174 83.89 37.603 173.71 115.19 212.53 18.437 18.437 35.32 35.739 51.19 52.25h267.72c14.397 0 26-11.603 26-26v-139.31c-2.411-2.396-4.754-4.887-7.06-7.438-4.941-4.239-9.676-9.562-14.344-14.06-5.112-5.098-10.1-10-14.938-14.969-5.941-5.874-11.483-11.298-17.219-17.25-5.503-5.288-10.955-10.84-16.5-16.438-5.475-5.321-10.883-10.906-16.5-16.406-5.402-5.411-10.837-10.962-16.5-16.438-4.919-5.101-10.3-10.339-15.281-15.344-13.08-22.15-30.996-44.3-55.37-54.969-37.618-37.618-70.878-70.44-101.81-101.37-6.734 3.297-5.738 4.848-7.906 1.938-10.44-10.46-20.23-21.803-31.34-32.95" fill-opacity="0.235"/>
 <text id="text8" style="word-spacing:0;letter-spacing:0" font-size="129.23px" line-height="125%" y="172.88" x="163.75999" font-family="Gentium Book Basic">
  <tspan id="tspan10" y="172.88" x="163.75999"/>
 </text>
 <text id="text12" style="text-anchor:middle" transform="scale(4.0128 .2492)" font-size="46.954px" y="344.57001" x="237.89" font-family="Arial"/>
 <text id="text14" style="word-spacing:0;letter-spacing:0" font-size="129.23px" line-height="125%" y="92.879997" x="745.03003" font-family="Gentium Book Basic">
  <tspan id="tspan16" y="92.879997" x="745.03003"/>
 </text>
 <text id="text18" style="text-anchor:middle" transform="scale(4.0128 .2492)" font-size="46.954px" y="23.538" x="382.73999" font-family="Arial"/>
 <text id="text20" style="word-spacing:0;letter-spacing:0" font-size="129.23px" line-height="125%" y="-88.379997" x="-326.54999" font-family="Gentium Book Basic">
  <tspan id="tspan22" y="-88.379997" x="-326.54999"/>
 </text>
 <text id="text24" style="text-anchor:middle" transform="scale(4.0128 .2492)" font-size="46.954px" y="-703.82001" x="115.7" font-family="Arial"/>
 <text id="text26" style="word-spacing:0;letter-spacing:0" font-size="129.23px" line-height="125%" y="-304.85001" x="771.5" font-family="Gentium Book Basic">
  <tspan id="tspan28" y="-304.85001" x="771.5"/>
 </text>
 <text id="text30" style="text-anchor:middle" transform="scale(4.0128 .2492)" font-size="46.954px" y="-1572.48" x="389.34" font-family="Arial"/>
 <text id="text32" style="word-spacing:0;letter-spacing:0" font-size="129.23px" line-height="125%" y="-384.85999" x="1352.77" font-family="Gentium Book Basic">
  <tspan id="tspan34" y="-384.85999" x="1352.77"/>
 </text>
 <text id="text36" style="text-anchor:middle" transform="scale(4.0128 .2492)" font-size="46.954px" y="-1893.52" x="534.19" font-family="Arial"/>
 <text id="text38" style="word-spacing:0;letter-spacing:0" font-size="129.23px" line-height="125%" y="-857.26001" x="963.65002" font-family="Gentium Book Basic">
  <tspan id="tspan40" y="-857.26001" x="963.65002"/>
 </text>
 <text id="text42" style="text-anchor:middle" transform="scale(4.0128 .2492)" font-size="46.954px" y="-3789.1699" x="437.22" font-family="Arial"/>
 <text id="text44" style="word-spacing:0;letter-spacing:0" font-size="129.23px" line-height="125%" y="-937.26001" x="1544.91" font-family="Gentium Book Basic">
  <tspan id="tspan46" y="-937.26001" x="1544.91"/>
 </text>
 <text id="text48" style="text-anchor:middle" transform="scale(4.0128 .2492)" font-size="46.954px" y="-4110.2002" x="582.07001" font-family="Arial"/>
 <text id="text50" style="word-spacing:0;letter-spacing:0" font-size="208.33px" line-height="125%" y="477.45999" x="-287.89001" font-family="Gentium Book Basic">
  <tspan id="tspan52" y="477.45999" x="-287.89001"/>
 </text>
 <g id="g54" fill="#fff" transform="matrix(17.168 0 0 17.168 51.37 41)">
  <path id="path56" d="m20.249 14.11c-0.121 0-0.233 0.026-0.351 0.037 0.12-0.735 0.199-0.821 0.214-1.596 0 0.005-0.003 0.01-0.003 0.017 0.009-0.069 0.023-0.138 0.024-0.208-0.184-3.865-4.83-6.08-10.06-6.126-5.236 0.046-9.88 2.261-10.07 6.126 0.005 0.07 0.021 0.139 0.025 0.208 0.155 6.923 4.587 12.479 10.04 12.479 2.987 0 5.664-1.675 7.503-4.318 0.655 0.745 1.605 1.222 2.678 1.222 1.98 0 3.587-2.271 3.587-4.253 0-1.979-1.606-3.588-3.586-3.588m-3.678 0.922c-1.607 0.915-3.948 1.524-6.547 1.521-2.602 0.004-4.944-0.606-6.553-1.521-1.631-0.927-2.4-2.064-2.386-3.07-0.015-1.015 0.758-2.151 2.386-3.077 1.609-0.917 3.951-1.524 6.553-1.52 2.599-0.005 4.94 0.603 6.547 1.52 1.631 0.927 2.404 2.062 2.389 3.077 0.015 1.01-0.758 2.143-2.389 3.07m3.678 4.974c-0.76-0.001-1.372-0.527-1.558-1.227 0.259-0.563 0.488-1.821 0.683-2.433 0.258-0.165 0.545-0.287 0.875-0.291 0.904 0.004 1.639 0.739 1.641 1.643-0.003 0.906-0.737 2.307-1.641 2.308"/>
  <path id="path58" d="m15.753 9.175c-1.406-0.8-3.455-1.331-5.73-1.329-2.277-0.002-4.328 0.529-5.736 1.329-1.424 0.812-2.101 1.807-2.089 2.695-0.011 0.881 0.662 1.876 2.089 2.688 0 0 1.991-4.168 5.188-1.029 3.196 3.139 1.574-3.319 4.137-0.82 2.563 2.498 4.233-0.839 4.233-0.839 0.013-0.889-0.663-1.883-2.092-2.695"/>
  <path id="path60" d="m7.595 1.783c0.128 0.104 0.262 0.18 0.385 0.26 0.239 0.158 0.504 0.312 0.683 0.502 0.093 0.094 0.17 0.2 0.238 0.297 0.067 0.099 0.124 0.193 0.16 0.291 0.071 0.192 0.059 0.375 0.021 0.585-0.073 0.428-0.335 0.906-0.593 1.431l0.043 0.051c0.292-0.103 0.537-0.278 0.757-0.493 0.216-0.218 0.402-0.487 0.496-0.826 0.097-0.331 0.036-0.744-0.158-1.045-0.186-0.312-0.478-0.495-0.762-0.602-0.143-0.059-0.289-0.1-0.411-0.151-0.126-0.054-0.243-0.125-0.343-0.215-0.205-0.175-0.297-0.461-0.273-0.626 0.008-0.083 0.023-0.152 0.051-0.244 0.031-0.087 0.083-0.186 0.15-0.286 0.131-0.203 0.308-0.411 0.486-0.652l-0.03-0.06c-0.158 0.009-0.306 0.051-0.446 0.111-0.143 0.058-0.276 0.14-0.399 0.245-0.123 0.107-0.237 0.24-0.316 0.41-0.08 0.168-0.111 0.386-0.05 0.578 0.06 0.192 0.183 0.337 0.311 0.439"/>
  <path id="path62" d="m10.238 3.02c0.099 0.067 0.194 0.109 0.277 0.159 0.162 0.097 0.336 0.21 0.431 0.35 0.102 0.142 0.163 0.278 0.194 0.377 0.024 0.107 0.004 0.185-0.009 0.301-0.014 0.112-0.053 0.255-0.101 0.414-0.05 0.161-0.114 0.33-0.169 0.533l0.044 0.05c0.217-0.039 0.397-0.141 0.559-0.275 0.16-0.136 0.299-0.319 0.369-0.559 0.073-0.238 0.023-0.546-0.126-0.76-0.139-0.224-0.357-0.34-0.559-0.394-0.101-0.03-0.204-0.05-0.283-0.078-0.082-0.029-0.157-0.073-0.217-0.134-0.13-0.117-0.146-0.328-0.103-0.393 0.017-0.035 0.024-0.055 0.032-0.1 0.013-0.044 0.036-0.101 0.067-0.165 0.066-0.132 0.161-0.28 0.253-0.475l-0.03-0.06c-0.115-0.016-0.22 0.001-0.322 0.031-0.104 0.028-0.2 0.078-0.289 0.148-0.09 0.07-0.174 0.162-0.233 0.287-0.062 0.12-0.084 0.288-0.033 0.433 0.051 0.147 0.151 0.246 0.248 0.31"/>
 </g>
</svg>

<?xml version="1.0" encoding="UTF-8" standalone="no"?>
<!-- Created with Inkscape (http://www.inkscape.org/) -->

<svg
   xmlns:dc="http://purl.org/dc/elements/1.1/"
   xmlns:cc="http://creativecommons.org/ns#"
   xmlns:rdf="http://www.w3.org/1999/02/22-rdf-syntax-ns#"
   xmlns:svg="http://www.w3.org/2000/svg"
   xmlns="http://www.w3.org/2000/svg"
   xmlns:inkscape="http://www.inkscape.org/namespaces/inkscape"
   version="1.1"
   width="100%"
   height="100%"
   viewBox="0 0 512 512"
   id="svg2">
  <metadata
     id="metadata68">
    <rdf:RDF>
      <cc:Work
         rdf:about="">
        <dc:format>image/svg+xml</dc:format>
        <dc:type
           rdf:resource="http://purl.org/dc/dcmitype/StillImage" />
      </cc:Work>
    </rdf:RDF>
  </metadata>
  <defs
     id="defs66" />
  <rect
     width="512"
     height="512"
     rx="25.988001"
     x="0"
     y="0"
     id="rect4"
     style="fill:#ef6a47" />
  <path
     d="m 197.22,41 c -31.596,3.932 -7.803,39.11 6.344,44.13 23.781,9.957 -4.639,39.669 -6.05,44.976 6.573,6.573 10.711,11.351 17.465,18.1 8.646,12.775 -23.16,0.642 -37.795,3.826 -52.617,8.234 -116.88,35.868 -125.28,95.19 -2.174,83.89 37.603,173.71 115.19,212.53 18.437,18.437 35.32,35.739 51.19,52.25 h 267.72 c 14.397,0 26,-11.603 26,-26 v -139.31 c -2.411,-2.396 -4.754,-4.887 -7.06,-7.438 -4.941,-4.239 -9.676,-9.562 -14.344,-14.06 -5.112,-5.098 -10.1,-10 -14.938,-14.969 -5.941,-5.874 -11.483,-11.298 -17.219,-17.25 -5.503,-5.288 -10.955,-10.84 -16.5,-16.438 -5.475,-5.321 -10.883,-10.906 -16.5,-16.406 -5.402,-5.411 -10.837,-10.962 -16.5,-16.438 -4.919,-5.101 -10.3,-10.339 -15.281,-15.344 -13.08,-22.15 -30.996,-44.3 -55.37,-54.969 -37.618,-37.618 -70.878,-70.44 -101.81,-101.37 -6.734,3.297 -5.738,4.848 -7.906,1.938 C 218.128,63.5 208.345,52.157 197.232,41.01"
     inkscape:connector-curvature="0"
     id="path6"
     style="fill-opacity:0.23500001" />
  <text
     x="163.75999"
     y="172.88"
     id="text8"
     style="font-size:129.22999573px;line-height:125%;letter-spacing:0;word-spacing:0;font-family:Gentium Book Basic">
    <tspan
       x="163.75999"
       y="172.88"
       id="tspan10" />
  </text>
  <text
     x="237.89"
     y="344.57001"
     transform="scale(4.0128,0.2492)"
     id="text12"
     style="font-size:46.95399857px;text-anchor:middle;font-family:Arial" />
  <text
     x="745.03003"
     y="92.879997"
     id="text14"
     style="font-size:129.22999573px;line-height:125%;letter-spacing:0;word-spacing:0;font-family:Gentium Book Basic">
    <tspan
       x="745.03003"
       y="92.879997"
       id="tspan16" />
  </text>
  <text
     x="382.73999"
     y="23.538"
     transform="scale(4.0128,0.2492)"
     id="text18"
     style="font-size:46.95399857px;text-anchor:middle;font-family:Arial" />
  <text
     x="-326.54999"
     y="-88.379997"
     id="text20"
     style="font-size:129.22999573px;line-height:125%;letter-spacing:0;word-spacing:0;font-family:Gentium Book Basic">
    <tspan
       x="-326.54999"
       y="-88.379997"
       id="tspan22" />
  </text>
  <text
     x="115.7"
     y="-703.82001"
     transform="scale(4.0128,0.2492)"
     id="text24"
     style="font-size:46.95399857px;text-anchor:middle;font-family:Arial" />
  <text
     x="771.5"
     y="-304.85001"
     id="text26"
     style="font-size:129.22999573px;line-height:125%;letter-spacing:0;word-spacing:0;font-family:Gentium Book Basic">
    <tspan
       x="771.5"
       y="-304.85001"
       id="tspan28" />
  </text>
  <text
     x="389.34"
     y="-1572.48"
     transform="scale(4.0128,0.2492)"
     id="text30"
     style="font-size:46.95399857px;text-anchor:middle;font-family:Arial" />
  <text
     x="1352.77"
     y="-384.85999"
     id="text32"
     style="font-size:129.22999573px;line-height:125%;letter-spacing:0;word-spacing:0;font-family:Gentium Book Basic">
    <tspan
       x="1352.77"
       y="-384.85999"
       id="tspan34" />
  </text>
  <text
     x="534.19"
     y="-1893.52"
     transform="scale(4.0128,0.2492)"
     id="text36"
     style="font-size:46.95399857px;text-anchor:middle;font-family:Arial" />
  <text
     x="963.65002"
     y="-857.26001"
     id="text38"
     style="font-size:129.22999573px;line-height:125%;letter-spacing:0;word-spacing:0;font-family:Gentium Book Basic">
    <tspan
       x="963.65002"
       y="-857.26001"
       id="tspan40" />
  </text>
  <text
     x="437.22"
     y="-3789.1699"
     transform="scale(4.0128,0.2492)"
     id="text42"
     style="font-size:46.95399857px;text-anchor:middle;font-family:Arial" />
  <text
     x="1544.91"
     y="-937.26001"
     id="text44"
     style="font-size:129.22999573px;line-height:125%;letter-spacing:0;word-spacing:0;font-family:Gentium Book Basic">
    <tspan
       x="1544.91"
       y="-937.26001"
       id="tspan46" />
  </text>
  <text
     x="582.07001"
     y="-4110.2002"
     transform="scale(4.0128,0.2492)"
     id="text48"
     style="font-size:46.95399857px;text-anchor:middle;font-family:Arial" />
  <text
     x="-287.89001"
     y="477.45999"
     id="text50"
     style="font-size:208.33000183px;line-height:125%;letter-spacing:0;word-spacing:0;font-family:Gentium Book Basic">
    <tspan
       x="-287.89001"
       y="477.45999"
       id="tspan52" />
  </text>
  <g
     transform="matrix(17.1677,0,0,17.1677,51.37,41)"
     id="g54"
     style="fill:#ffffff">
    <path
       d="m 20.249,14.11 c -0.121,0 -0.233,0.026 -0.351,0.037 0.12,-0.735 0.199,-0.821 0.214,-1.596 0,0.005 -0.003,0.01 -0.003,0.017 0.009,-0.069 0.023,-0.138 0.024,-0.208 C 19.949,8.495 15.303,6.28 10.073,6.234 4.837,6.28 0.193,8.495 0.003,12.36 c 0.005,0.07 0.021,0.139 0.025,0.208 0.155,6.923 4.587,12.479 10.04,12.479 2.987,0 5.664,-1.675 7.503,-4.318 0.655,0.745 1.605,1.222 2.678,1.222 1.98,0 3.587,-2.271 3.587,-4.253 0,-1.979 -1.606,-3.588 -3.586,-3.588 m -3.678,0.922 c -1.607,0.915 -3.948,1.524 -6.547,1.521 C 7.423,16.557 5.081,15.947 3.472,15.032 1.841,14.105 1.072,12.968 1.086,11.962 1.071,10.947 1.844,9.811 3.472,8.885 5.081,7.968 7.423,7.361 10.025,7.365 c 2.599,-0.005 4.94,0.603 6.547,1.52 1.631,0.927 2.404,2.062 2.389,3.077 0.015,1.01 -0.758,2.143 -2.389,3.07 m 3.678,4.974 c -0.76,-0.001 -1.372,-0.527 -1.558,-1.227 0.259,-0.563 0.488,-1.821 0.683,-2.433 0.258,-0.165 0.545,-0.287 0.875,-0.291 0.904,0.004 1.639,0.739 1.641,1.643 -0.003,0.906 -0.737,2.307 -1.641,2.308"
       inkscape:connector-curvature="0"
       id="path56" />
    <path
       d="M 15.753,9.175 C 14.347,8.375 12.298,7.844 10.023,7.846 7.746,7.844 5.695,8.375 4.287,9.175 2.863,9.987 2.186,10.982 2.198,11.87 c -0.011,0.881 0.662,1.876 2.089,2.688 0,0 1.991,-4.168 5.188,-1.029 3.196,3.139 1.574,-3.319 4.137,-0.82 2.563,2.498 4.233,-0.839 4.233,-0.839 0.013,-0.889 -0.663,-1.883 -2.092,-2.695"
       inkscape:connector-curvature="0"
       id="path58" />
    <path
       d="m 7.595,1.783 c 0.128,0.104 0.262,0.18 0.385,0.26 0.239,0.158 0.504,0.312 0.683,0.502 0.093,0.094 0.17,0.2 0.238,0.297 0.067,0.099 0.124,0.193 0.16,0.291 C 9.132,3.325 9.12,3.508 9.082,3.718 9.009,4.146 8.747,4.624 8.489,5.149 L 8.532,5.2 C 8.824,5.097 9.069,4.922 9.289,4.707 9.505,4.489 9.691,4.22 9.785,3.881 9.882,3.55 9.821,3.137 9.627,2.836 9.441,2.524 9.149,2.341 8.865,2.234 8.722,2.175 8.576,2.134 8.454,2.083 8.328,2.029 8.211,1.958 8.111,1.868 7.906,1.693 7.814,1.407 7.838,1.242 7.846,1.159 7.861,1.09 7.889,0.998 7.92,0.911 7.972,0.812 8.039,0.712 8.17,0.509 8.347,0.301 8.525,0.06 L 8.495,0 C 8.337,0.009 8.189,0.051 8.049,0.111 7.906,0.169 7.773,0.251 7.65,0.356 7.527,0.463 7.413,0.596 7.334,0.766 7.254,0.934 7.223,1.152 7.284,1.344 7.344,1.536 7.467,1.681 7.595,1.783"
       inkscape:connector-curvature="0"
       id="path60" />
    <path
       d="m 10.238,3.02 c 0.099,0.067 0.194,0.109 0.277,0.159 0.162,0.097 0.336,0.21 0.431,0.35 0.102,0.142 0.163,0.278 0.194,0.377 0.024,0.107 0.004,0.185 -0.009,0.301 -0.014,0.112 -0.053,0.255 -0.101,0.414 -0.05,0.161 -0.114,0.33 -0.169,0.533 l 0.044,0.05 C 11.122,5.165 11.302,5.063 11.464,4.929 11.624,4.793 11.763,4.61 11.833,4.37 11.906,4.132 11.856,3.824 11.707,3.61 11.568,3.386 11.35,3.27 11.148,3.216 11.047,3.186 10.944,3.166 10.865,3.138 10.783,3.109 10.708,3.065 10.648,3.004 10.518,2.887 10.502,2.676 10.545,2.611 10.562,2.576 10.569,2.556 10.577,2.511 10.59,2.467 10.613,2.41 10.644,2.346 10.71,2.214 10.805,2.066 10.897,1.871 l -0.03,-0.06 C 10.752,1.795 10.647,1.812 10.545,1.842 10.441,1.87 10.345,1.92 10.256,1.99 10.166,2.06 10.082,2.152 10.023,2.277 9.961,2.397 9.939,2.565 9.99,2.71 c 0.051,0.147 0.151,0.246 0.248,0.31"
       inkscape:connector-curvature="0"
       id="path62" />
  </g>
</svg>
